images/FEVER.svg

<svg height="250" viewBox="0 0 250 250" width="250" xmlns="http://www.w3.org/2000/svg" xmlns:xlink="http://www.w3.org/1999/xlink"><clipPath id="a"><path d="m105 96h126.90625v62.054688h-126.90625zm0 0"/></clipPath><clipPath id="b"><path d="m23.4375 93.75h78.5625v57.25h-78.5625zm0 0"/></clipPath><path d="m0 0h250v250h-250z" fill="#b40329"/><g clip-path="url(#a)"><path d="m166.457031 139.59375c-1.429687-.398438-2.808593-.808594-4.199219-1.132812-.289062-.0625-.742187.109374-.980468.324218-3.175782 2.90625-6.363282 5.804688-9.996094 8.175782-4.125 2.679687-8.433594 4.996093-13.109375 6.570312-3.058594 1.03125-6.214844 1.226562-9.28125.042969-2.167969-.832031-3.867187-2.242188-4.460937-4.609375-.378907-1.488282-.011719-2.941406.441406-4.363282.601562-1.894531 1.648437-3.542968 2.800781-5.136718 1.796875-2.480469 3.597656-4.957032 5.460937-7.5-5.34375-.839844-7.347656-4.113282-6.828124-9.390625-.710938 1.3125-1.335938 2.519531-1.992188 3.695312-2.996094 5.351563-5.234375 11.039063-7.304688 16.792969-.957031 2.667969-1.90625 5.339844-2.777343 8.042969-.691407 2.132812-2.394531 3.382812-4.527344 3.191406-2.636719-.25-4.242187-1.683594-4.328125-4.105469-.097656-2.605468-.011719-5.214844-.011719-7.820312 0-6.796875.023438-13.59375-.011719-20.390625-.019531-4.449219-.117187-8.894531-.171874-13.34375-.019532-1.605469-.042969-3.199219-.0625-4.804688 0-.238281 0-.464843 0-.863281 1.722656.195312 3.390624.207031 4.976562.59375 2.1875.527344 3.433594 2.476562 3.425781 4.976562-.035156 6.957032-.078125 13.925782-.109375 20.886719 0 .246094 0 .503907.117188.773438.539062-1.128907 1.078125-2.261719 1.628906-3.390625 3.671875-7.476563 8.046875-14.554688 12.527344-21.566406 1.195312-1.875 2.851562-3.476563 4.414062-5.082032 1.402344-1.421875 4.117188-1.195312 5.527344.300782 1.507812 1.605468 1.476562 3.75-.128906 5.308593-2.996094 2.910157-5.429688 6.238281-7.445313 9.890625-.074219.148438-.160156.289063-.226562.441406-.007813.03125.011719.085938.035156.160157 1.011719-1.21875 1.980469-2.445313 3.023437-3.609375 3.339844-3.691406 6.667969-7.410156 10.527344-10.574219 2.777344-2.285156 5.792969-4.148437 9.316406-5.085937 1.355469-.367188 2.746094-.398438 4.125-.097657 2.617188.570313 4.253907 2.230469 5.007813 4.71875.699219 2.335938-1.195313 4.277344-3.574219 3.640625-.800781-.214844-1.511718-.765625-2.273437-1.121094-.207031-.097656-.484375-.128906-.691407-.074218-2.273437.636718-4.199218 1.917968-6.085937 3.296875-5.449219 3.984375-10.046875 8.777343-13.765625 14.410156-.65625 1.003906-1.097656 2.144531-1.636719 3.222656.066407.085938.128907.171875.207031.257813 1.03125-.183594 2.085938-.300782 3.109376-.550782 1.8125-.429687 3.449218-1.25 4.957031-2.347656 2.683593-1.960937 5.394531-3.886718 8.121093-5.804687 1.226563-.863281 2.5625-1.636719 4.113282-1.390625 1.304687.214844 2.640625.570312 3.804687 1.164062.484375.246094.699219 1.257813.828125 1.960938.332032 1.785156-.289062 3.273437-1.796875 4.296875-3.007812 2.046875-5.9375 4.199219-9.210937 5.828125-2.378906 1.183594-4.363282 2.917968-6.128906 4.910156-2.941407 3.316406-5.773438 6.722656-7.917969 10.621094-.558594 1.011718-.96875 2.101562-1.453125 3.15625.054687.074218.117187.160156.171875.238281 1.207031-.324219 2.457031-.550781 3.621093-.980469 5.027344-1.855468 9.550782-4.613281 13.785157-7.863281 3.953125-3.039063 7.808593-6.171875 11.730469-9.253906.421874-.332031.742187-.925781 1.453124-.730469.992188.265625 1.929688.613281 2.433594 1.601562.097656.195313.175782.390626.3125.710938.636719-.140625 1.328125-.246094 1.949219-.472656.207031-.074219.335937-.484375.398437-.765625.648438-2.960938 1.273438-5.921875 1.910157-8.886719.558593-2.582031 1.117187-5.179688 1.667969-7.765625.054687-.246094.097656-.496094.152343-.816406-1.390625.300781-2.707031.300781-3.996093-.152344-1.003907-.34375-1.800782-.949219-2.480469-1.753906-.441407-.527344-.460938-1.058594-.3125-1.660157.335937-1.347656 1.195312-2.261718 2.414062-2.867187 1.886719-.925781 3.78125-1.851563 5.675781-2.753906.410157-.195313.667969-.441407.832032-.894531.589844-1.703126 2.097656-2.359376 3.734375-1.585938 1.058593.496094 2.113281.519531 3.222656.410156 5.296875-.527344 10.523437-.324218 15.554687 1.648438 1.109376.429687 2.195313.949218 3.242188 1.519531 3.574219 1.9375 4.910156 5.417969 3.585938 9.25-.765626 2.230469-2.046876 4.148437-3.566407 5.925781-3.628906 4.246094-7.539062 8.199219-12.484375 10.890625-2.671875 1.453125-5.578125 2.488281-8.378906 3.703125-.195312.089844-.378906.164063-.570312.390625.914062.0625 1.820312.148438 2.734374.191407 5.074219.238281 10.136719.484374 15.210938.691406 2.625.105468 5.265625.171875 7.894531.203125 5.4375.066406 10.878907.128906 16.316407.128906 1.746093 0 3.492187-.140625 5.238281-.277344 1.992187-.164062 3.691406.398438 5.050781 1.882813 1.054688 1.152344 1.238281 2.511718.679688 3.941406-.539063 1.371094-1.542969 2.199219-3.0625 2.175781-1.765626-.007812-3.519532-.105469-5.289063-.171875-1.9375-.0625-3.875-.171875-5.816406-.203125-3.734375-.054687-7.472657 0-11.210938-.097656-6.503906-.183594-13.023437-.386719-19.519531-.722656-4.058594-.203125-8.109375-.632813-12.160156-1.011719-.515625-.042969-.699219.097656-.753906.5625-.277344 2.390625-.632813 4.78125-.839844 7.183594-.160156 1.917968-.203125 3.855468-.183594 5.78125.035156 2.867187-1.808594 3.835937-4.4375 3.554687-1.96875-.214843-3.101562-1.257812-3.1875-3.25-.097656-2.1875.042969-4.394531.257812-6.570312.257813-2.707031.703126-5.398438 1.054688-8.101563-.03125-.117187-.042969-.257812-.042969-.472656zm9.890625-11.40625c.355469-.121094.625-.195312.894532-.304688.484374-.203124.96875-.40625 1.429687-.644531 4.578125-2.390625 8.671875-5.429687 12.25-9.15625 2.078125-2.164062 4.046875-4.394531 5.332031-7.152343.429688-.925782.429688-.925782-.488281-1.257813-4.695313-1.757813-9.5-2.027344-14.398437-1.035156-.453126.085937-.582032.324219-.667969.6875-1.410157 6.066406-2.832031 12.117187-4.253907 18.183593-.054687.203126-.066406.410157-.097656.679688zm0 0" fill="#fff"/></g><g clip-path="url(#b)"><path d="m51.9375 118.511719c1.660156-.503907 3.179688-1 4.707031-1.429688 3.125-.886719 6.257813-1.726562 9.394531-2.574219.410157-.109374.851563-.207031 1.269532-.195312 1.089844.03125 1.832031-.507812 2.53125-1.269531 2.5625-2.84375 5.0625-5.753907 8.023437-8.210938 3.136719-2.59375 6.496094-4.8125 10.300781-6.300781 2.519532-.980469 5.878907.90625 6.34375 3.546875.257813 1.496094-.582031 2.882813-2.125 3.390625-7.722656 2.53125-13.03125 8.046875-17.769531 14.28125-.042969.054688-.042969.132812-.109375.347656.28125-.195312.472656-.3125.648438-.441406 3.8125-2.921875 7.957031-5.3125 12.234375-7.464844 1.863281-.9375 3.867187-1.238281 5.925781-.648437 1.679688.484375 2.746094 1.636719 3.1875 3.296875.398438 1.53125-.324219 2.703125-1.519531 3.597656-1.539063 1.140625-3.082031 2.273438-4.675781 3.339844-3.800782 2.542968-7.90625 4.4375-12.234376 5.914062-.894531.300782-1.746093.894532-2.46875 1.519532-3.519531 3.101562-6.621093 6.570312-8.894531 10.714843-.226562.421875-.433593.851563-.648437 1.28125-.097656.214844-.183594.441407-.363282.894531 1.214844-.332031 2.347657-.472656 3.316407-.945312 2.53125-1.242188 5.050781-2.523438 7.472656-3.953125 6.59375-3.902344 13.132813-7.875 19.679687-11.851563 2.046876-1.238281 3.40625-1.066406 4.976563.746094.292969.332032.324219.613282.152344 1.023438-.992188 2.410156-2.648438 4.296875-4.609375 5.953125-4.699219 3.976562-9.953125 7.132812-15.1875 10.320312-3.652344 2.230469-7.464844 4.082031-11.589844 5.234375-3.007812.839844-5.914062.699219-8.683594-.851562-3.113281-1.742188-4.328125-4.769532-3.273437-8.175782.796875-2.550781 2.347656-4.695312 3.984375-6.75 1.679687-2.113281 3.492187-4.128906 5.234375-6.183593-.503907-.660157-1.128907-1.292969-1.558594-2.046875-.433594-.753906-.660156-1.617188-1.003906-2.511719-1.496094.519531-3.058594 1.078125-4.632813 1.617187-3.390625 1.152344-6.773437 2.316407-10.175781 3.4375-.972656.320313-1.554687.871094-1.917969 1.839844-2.273437 6-4.589844 11.988282-6.894531 17.976563-.140625.355469-.300781.699219-.496094 1.035156-1.28125 2.230469-4.4375 2.757813-6.398437 1.066406-1.128906-.980469-1.386719-2.285156-.730469-3.996093 1.625-4.289063 3.261719-8.5625 4.890625-12.839844.148438-.398438.300781-.808594.492188-1.335938-1.226563.386719-2.367188.777344-3.519532 1.109375-1.324218.386719-2.652344.851563-4.007812 1.078125-1.960938.34375-3.714844-.300781-4.976563-1.863281-.507812-.636719-.808593-1.519531-.9375-2.335937-.148437-.949219.464844-1.671876 1.324219-2.003907 1.324219-.527343 2.703125-.960937 4.0625-1.390625 3.5-1.132812 7-2.242187 10.511719-3.351562.59375-.183594 1.023437-.515625 1.238281-1.085938 1.164062-3.027344 2.316406-6.066406 3.46875-9.101562.011719-.03125-.011719-.085938-.03125-.214844-1.433594.472656-2.855469.9375-4.265625 1.421875-1.949219.65625-3.910156 1.269531-5.816406 2.011719-1.886719.734375-3.726563 1.59375-5.582031 2.414062-2.25 1-4.855469.238282-6.179688-1.832031-1.023438-1.59375-.722656-3.285156.9375-4.179687 1.648438-.902344 3.382812-1.679688 5.148438-2.324219 4.425781-1.59375 8.894531-3.058594 13.332031-4.632813 1.960937-.691406 3.878906-1.488281 5.785156-2.304687.410156-.171875.734375-.65625.980469-1.066407.324218-.550781.550781-1.164062.785156-1.765624.140625-.378907.355469-.527344.753906-.433594 1.109375.269531 2.21875.574218 3.351563.746094.539062.085937 1.140625.007812 1.667969-.152344 5.484374-1.679688 10.921874-3.480469 16.4375-5.0625 1.949218-.558594 4.050781-.679688 6.085937-.851563 1.28125-.105469 2.371094.550781 3.167969 1.550781 1.164062 1.445313.582031 3.449219-1.261719 4.148438-1.3125.507812-2.691406.820312-4.027344 1.28125-6.097656 2.089844-12.191406 4.199219-18.289062 6.3125-.066407.019531-.140625.054688-.207031.054688-1.957032.214843-2.777344 1.570312-3.414063 3.230468-1.023437 2.714844-2.164063 5.363282-3.328125 8.195313zm0 0" fill="#fff"/></g></svg>

<svg xmlns="http://www.w3.org/2000/svg" xmlns:xlink="http://www.w3.org/1999/xlink" width="250px" height="250px" viewBox="0 0 250 250" version="1.1">
<defs>
<clipPath id="clip1">
  <path d="M 105 96 L 231.90625 96 L 231.90625 158.054688 L 105 158.054688 Z M 105 96 "/>
</clipPath>
<clipPath id="clip2">
  <path d="M 23.4375 93.75 L 102 93.75 L 102 151 L 23.4375 151 Z M 23.4375 93.75 "/>
</clipPath>
</defs>
<g id="surface1">
<rect x="0" y="0" width="250" height="250" style="fill:rgb(70.588237%,1.176471%,16.078432%);fill-opacity:1;stroke:none;"/>
<g clip-path="url(#clip1)" clip-rule="nonzero">
<path style=" stroke:none;fill-rule:nonzero;fill:rgb(100%,100%,100%);fill-opacity:1;" d="M 166.457031 139.59375 C 165.027344 139.195312 163.648438 138.785156 162.257812 138.460938 C 161.96875 138.398438 161.515625 138.570312 161.277344 138.785156 C 158.101562 141.691406 154.914062 144.589844 151.28125 146.960938 C 147.15625 149.640625 142.847656 151.957031 138.171875 153.53125 C 135.113281 154.5625 131.957031 154.757812 128.890625 153.574219 C 126.722656 152.742188 125.023438 151.332031 124.429688 148.964844 C 124.050781 147.476562 124.417969 146.023438 124.871094 144.601562 C 125.472656 142.707031 126.519531 141.058594 127.671875 139.464844 C 129.46875 136.984375 131.269531 134.507812 133.132812 131.964844 C 127.789062 131.125 125.785156 127.851562 126.304688 122.574219 C 125.59375 123.886719 124.96875 125.09375 124.3125 126.269531 C 121.316406 131.621094 119.078125 137.308594 117.007812 143.0625 C 116.050781 145.730469 115.101562 148.402344 114.230469 151.105469 C 113.539062 153.238281 111.835938 154.488281 109.703125 154.296875 C 107.066406 154.046875 105.460938 152.613281 105.375 150.191406 C 105.277344 147.585938 105.363281 144.976562 105.363281 142.371094 C 105.363281 135.574219 105.386719 128.777344 105.351562 121.980469 C 105.332031 117.53125 105.234375 113.085938 105.179688 108.636719 C 105.160156 107.03125 105.136719 105.4375 105.117188 103.832031 C 105.117188 103.59375 105.117188 103.367188 105.117188 102.96875 C 106.839844 103.164062 108.507812 103.175781 110.09375 103.5625 C 112.28125 104.089844 113.527344 106.039062 113.519531 108.539062 C 113.484375 115.496094 113.441406 122.464844 113.410156 129.425781 C 113.410156 129.671875 113.410156 129.929688 113.527344 130.199219 C 114.066406 129.070312 114.605469 127.9375 115.15625 126.808594 C 118.828125 119.332031 123.203125 112.253906 127.683594 105.242188 C 128.878906 103.367188 130.535156 101.765625 132.097656 100.160156 C 133.5 98.738281 136.214844 98.964844 137.625 100.460938 C 139.132812 102.066406 139.101562 104.210938 137.496094 105.769531 C 134.5 108.679688 132.066406 112.007812 130.050781 115.660156 C 129.976562 115.808594 129.890625 115.949219 129.824219 116.101562 C 129.816406 116.132812 129.835938 116.1875 129.859375 116.261719 C 130.871094 115.042969 131.839844 113.816406 132.882812 112.652344 C 136.222656 108.960938 139.550781 105.242188 143.410156 102.078125 C 146.1875 99.792969 149.203125 97.929688 152.726562 96.992188 C 154.082031 96.625 155.472656 96.59375 156.851562 96.894531 C 159.46875 97.464844 161.105469 99.125 161.859375 101.613281 C 162.558594 103.949219 160.664062 105.890625 158.285156 105.253906 C 157.484375 105.039062 156.773438 104.488281 156.011719 104.132812 C 155.804688 104.035156 155.527344 104.003906 155.320312 104.058594 C 153.046875 104.695312 151.121094 105.976562 149.234375 107.355469 C 143.785156 111.339844 139.1875 116.132812 135.46875 121.765625 C 134.8125 122.769531 134.371094 123.910156 133.832031 124.988281 C 133.898438 125.074219 133.960938 125.160156 134.039062 125.246094 C 135.070312 125.0625 136.125 124.945312 137.148438 124.695312 C 138.960938 124.265625 140.597656 123.445312 142.105469 122.347656 C 144.789062 120.386719 147.5 118.460938 150.226562 116.542969 C 151.453125 115.679688 152.789062 114.90625 154.339844 115.152344 C 155.644531 115.367188 156.980469 115.722656 158.144531 116.316406 C 158.628906 116.5625 158.84375 117.574219 158.972656 118.277344 C 159.304688 120.0625 158.683594 121.550781 157.175781 122.574219 C 154.167969 124.621094 151.238281 126.773438 147.964844 128.402344 C 145.585938 129.585938 143.601562 131.320312 141.835938 133.3125 C 138.894531 136.628906 136.0625 140.035156 133.917969 143.933594 C 133.359375 144.945312 132.949219 146.035156 132.464844 147.089844 C 132.519531 147.164062 132.582031 147.25 132.636719 147.328125 C 133.84375 147.003906 135.09375 146.777344 136.257812 146.347656 C 141.285156 144.492188 145.808594 141.734375 150.042969 138.484375 C 153.996094 135.445312 157.851562 132.3125 161.773438 129.230469 C 162.195312 128.898438 162.515625 128.304688 163.226562 128.5 C 164.21875 128.765625 165.15625 129.113281 165.660156 130.101562 C 165.757812 130.296875 165.835938 130.492188 165.972656 130.8125 C 166.609375 130.671875 167.300781 130.566406 167.921875 130.339844 C 168.128906 130.265625 168.257812 129.855469 168.320312 129.574219 C 168.96875 126.613281 169.59375 123.652344 170.230469 120.6875 C 170.789062 118.105469 171.347656 115.507812 171.898438 112.921875 C 171.953125 112.675781 171.996094 112.425781 172.050781 112.105469 C 170.660156 112.40625 169.34375 112.40625 168.054688 111.953125 C 167.050781 111.609375 166.253906 111.003906 165.574219 110.199219 C 165.132812 109.671875 165.113281 109.140625 165.261719 108.539062 C 165.597656 107.191406 166.457031 106.277344 167.675781 105.671875 C 169.5625 104.746094 171.457031 103.820312 173.351562 102.917969 C 173.761719 102.722656 174.019531 102.476562 174.183594 102.023438 C 174.773438 100.320312 176.28125 99.664062 177.917969 100.4375 C 178.976562 100.933594 180.03125 100.957031 181.140625 100.847656 C 186.4375 100.320312 191.664062 100.523438 196.695312 102.496094 C 197.804688 102.925781 198.890625 103.445312 199.9375 104.015625 C 203.511719 105.953125 204.847656 109.433594 203.523438 113.265625 C 202.757812 115.496094 201.476562 117.414062 199.957031 119.191406 C 196.328125 123.4375 192.417969 127.390625 187.472656 130.082031 C 184.800781 131.535156 181.894531 132.570312 179.09375 133.785156 C 178.898438 133.875 178.714844 133.949219 178.523438 134.175781 C 179.4375 134.238281 180.34375 134.324219 181.257812 134.367188 C 186.332031 134.605469 191.394531 134.851562 196.46875 135.058594 C 199.09375 135.164062 201.734375 135.230469 204.363281 135.261719 C 209.800781 135.328125 215.242188 135.390625 220.679688 135.390625 C 222.425781 135.390625 224.171875 135.25 225.917969 135.113281 C 227.910156 134.949219 229.609375 135.511719 230.96875 136.996094 C 232.023438 138.148438 232.207031 139.507812 231.648438 140.9375 C 231.109375 142.308594 230.105469 143.136719 228.585938 143.113281 C 226.820312 143.105469 225.066406 143.007812 223.296875 142.941406 C 221.359375 142.878906 219.421875 142.769531 217.480469 142.738281 C 213.746094 142.683594 210.007812 142.738281 206.269531 142.640625 C 199.765625 142.457031 193.246094 142.253906 186.75 141.917969 C 182.691406 141.714844 178.640625 141.285156 174.589844 140.90625 C 174.074219 140.863281 173.890625 141.003906 173.835938 141.46875 C 173.558594 143.859375 173.203125 146.25 172.996094 148.652344 C 172.835938 150.570312 172.792969 152.507812 172.8125 154.433594 C 172.847656 157.300781 171.003906 158.269531 168.375 157.988281 C 166.40625 157.773438 165.273438 156.730469 165.1875 154.738281 C 165.089844 152.550781 165.230469 150.34375 165.445312 148.167969 C 165.703125 145.460938 166.148438 142.769531 166.5 140.066406 C 166.46875 139.949219 166.457031 139.808594 166.457031 139.59375 Z M 176.347656 128.1875 C 176.703125 128.066406 176.972656 127.992188 177.242188 127.882812 C 177.726562 127.679688 178.210938 127.476562 178.671875 127.238281 C 183.25 124.847656 187.34375 121.808594 190.921875 118.082031 C 193 115.917969 194.96875 113.6875 196.253906 110.929688 C 196.683594 110.003906 196.683594 110.003906 195.765625 109.671875 C 191.070312 107.914062 186.265625 107.644531 181.367188 108.636719 C 180.914062 108.722656 180.785156 108.960938 180.699219 109.324219 C 179.289062 115.390625 177.867188 121.441406 176.445312 127.507812 C 176.390625 127.710938 176.378906 127.917969 176.347656 128.1875 Z M 176.347656 128.1875 "/>
</g>
<g clip-path="url(#clip2)" clip-rule="nonzero">
<path style=" stroke:none;fill-rule:nonzero;fill:rgb(100%,100%,100%);fill-opacity:1;" d="M 51.9375 118.511719 C 53.597656 118.007812 55.117188 117.511719 56.644531 117.082031 C 59.769531 116.195312 62.902344 115.355469 66.039062 114.507812 C 66.449219 114.398438 66.890625 114.300781 67.308594 114.3125 C 68.398438 114.34375 69.140625 113.804688 69.839844 113.042969 C 72.402344 110.199219 74.902344 107.289062 77.863281 104.832031 C 81 102.238281 84.359375 100.019531 88.164062 98.53125 C 90.683594 97.550781 94.042969 99.4375 94.507812 102.078125 C 94.765625 103.574219 93.925781 104.960938 92.382812 105.46875 C 84.660156 108 79.351562 113.515625 74.613281 119.75 C 74.570312 119.804688 74.570312 119.882812 74.503906 120.097656 C 74.785156 119.902344 74.976562 119.785156 75.152344 119.65625 C 78.964844 116.734375 83.109375 114.34375 87.386719 112.191406 C 89.25 111.253906 91.253906 110.953125 93.3125 111.542969 C 94.992188 112.027344 96.058594 113.179688 96.5 114.839844 C 96.898438 116.371094 96.175781 117.542969 94.980469 118.4375 C 93.441406 119.578125 91.898438 120.710938 90.304688 121.777344 C 86.503906 124.320312 82.398438 126.214844 78.070312 127.691406 C 77.175781 127.992188 76.324219 128.585938 75.601562 129.210938 C 72.082031 132.3125 68.980469 135.78125 66.707031 139.925781 C 66.480469 140.347656 66.273438 140.777344 66.058594 141.207031 C 65.960938 141.421875 65.875 141.648438 65.695312 142.101562 C 66.910156 141.769531 68.042969 141.628906 69.011719 141.15625 C 71.542969 139.914062 74.0625 138.632812 76.484375 137.203125 C 83.078125 133.300781 89.617188 129.328125 96.164062 125.351562 C 98.210938 124.113281 99.570312 124.285156 101.140625 126.097656 C 101.433594 126.429688 101.464844 126.710938 101.292969 127.121094 C 100.300781 129.53125 98.644531 131.417969 96.683594 133.074219 C 91.984375 137.050781 86.730469 140.207031 81.496094 143.394531 C 77.84375 145.625 74.03125 147.476562 69.90625 148.628906 C 66.898438 149.46875 63.992188 149.328125 61.222656 147.777344 C 58.109375 146.035156 56.894531 143.007812 57.949219 139.601562 C 58.746094 137.050781 60.296875 134.90625 61.933594 132.851562 C 63.613281 130.738281 65.425781 128.722656 67.167969 126.667969 C 66.664062 126.007812 66.039062 125.375 65.609375 124.621094 C 65.175781 123.867188 64.949219 123.003906 64.605469 122.109375 C 63.109375 122.628906 61.546875 123.1875 59.972656 123.726562 C 56.582031 124.878906 53.199219 126.042969 49.796875 127.164062 C 48.824219 127.484375 48.242188 128.035156 47.878906 129.003906 C 45.605469 135.003906 43.289062 140.992188 40.984375 146.980469 C 40.84375 147.335938 40.683594 147.679688 40.488281 148.015625 C 39.207031 150.246094 36.050781 150.773438 34.089844 149.082031 C 32.960938 148.101562 32.703125 146.796875 33.359375 145.085938 C 34.984375 140.796875 36.621094 136.523438 38.25 132.246094 C 38.398438 131.847656 38.550781 131.4375 38.742188 130.910156 C 37.515625 131.296875 36.375 131.6875 35.222656 132.019531 C 33.898438 132.40625 32.570312 132.871094 31.214844 133.097656 C 29.253906 133.441406 27.5 132.796875 26.238281 131.234375 C 25.730469 130.597656 25.429688 129.714844 25.300781 128.898438 C 25.152344 127.949219 25.765625 127.226562 26.625 126.894531 C 27.949219 126.367188 29.328125 125.933594 30.6875 125.503906 C 34.1875 124.371094 37.6875 123.261719 41.199219 122.152344 C 41.792969 121.96875 42.222656 121.636719 42.4375 121.066406 C 43.601562 118.039062 44.753906 115 45.90625 111.964844 C 45.917969 111.933594 45.894531 111.878906 45.875 111.75 C 44.441406 112.222656 43.019531 112.6875 41.609375 113.171875 C 39.660156 113.828125 37.699219 114.441406 35.792969 115.183594 C 33.90625 115.917969 32.066406 116.777344 30.210938 117.597656 C 27.960938 118.597656 25.355469 117.835938 24.03125 115.765625 C 23.007812 114.171875 23.308594 112.480469 24.96875 111.585938 C 26.617188 110.683594 28.351562 109.90625 30.117188 109.261719 C 34.542969 107.667969 39.011719 106.203125 43.449219 104.628906 C 45.410156 103.9375 47.328125 103.140625 49.234375 102.324219 C 49.644531 102.152344 49.96875 101.667969 50.214844 101.257812 C 50.539062 100.707031 50.765625 100.09375 51 99.492188 C 51.140625 99.113281 51.355469 98.964844 51.753906 99.058594 C 52.863281 99.328125 53.972656 99.632812 55.105469 99.804688 C 55.644531 99.890625 56.246094 99.8125 56.773438 99.652344 C 62.257812 97.972656 67.695312 96.171875 73.210938 94.589844 C 75.160156 94.03125 77.261719 93.910156 79.296875 93.738281 C 80.578125 93.632812 81.667969 94.289062 82.464844 95.289062 C 83.628906 96.734375 83.046875 98.738281 81.203125 99.4375 C 79.890625 99.945312 78.511719 100.257812 77.175781 100.71875 C 71.078125 102.808594 64.984375 104.917969 58.886719 107.03125 C 58.820312 107.050781 58.746094 107.085938 58.679688 107.085938 C 56.722656 107.300781 55.902344 108.65625 55.265625 110.316406 C 54.242188 113.03125 53.101562 115.679688 51.9375 118.511719 Z M 51.9375 118.511719 "/>
</g>
</g>
</svg>
